Sources/FrostedUI/Resources/Icons.xcassets/microphoneOff20.imageset/microphone-off-20.svg

<svg width="20" height="20" viewBox="0 0 20 20" fill="none" xmlns="http://www.w3.org/2000/svg" data-fui-icon="true">
  <path
    d="M1.65747 1.65723C1.95038 1.3645 2.42518 1.36439 2.71802 1.65723L18.343 17.2822C18.6357 17.5751 18.6357 18.0499 18.343 18.3428C18.0502 18.6356 17.5754 18.6355 17.2825 18.3428L14.7399 15.8002C14.6346 15.6949 14.47 15.6791 14.3436 15.7577C13.3594 16.37 12.2379 16.7823 11.0342 16.9333C10.8737 16.9534 10.7502 17.0877 10.7502 17.2495V18.1875C10.7502 18.3601 10.8902 18.5 11.0627 18.5H13.2502C13.6643 18.5002 14.0002 18.8359 14.0002 19.25C14.0002 19.6641 13.6643 19.9998 13.2502 20H6.75024C6.33609 19.9999 6.00024 19.6642 6.00024 19.25C6.00024 18.8358 6.33609 18.5001 6.75024 18.5H8.93774C9.11033 18.5 9.25024 18.3601 9.25024 18.1875V17.2495C9.25024 17.0877 9.1264 16.9534 8.96594 16.9333C4.89794 16.4244 1.75024 12.9559 1.75024 8.75C1.75024 8.33583 2.08609 8.00007 2.50024 8C2.9143 8.00018 3.25024 8.3359 3.25024 8.75C3.25024 12.4779 6.27238 15.4999 10.0002 15.5C11.129 15.4999 12.1917 15.2209 13.126 14.7302C13.3057 14.6358 13.335 14.3953 13.1915 14.2518L12.3425 13.4028C12.2481 13.3084 12.1047 13.2853 11.9824 13.3384C11.3747 13.6023 10.705 13.75 10.0002 13.75C7.23882 13.75 5.00024 11.5114 5.00024 8.75V6.25C5.00024 6.2335 5.00036 6.21701 5.00058 6.20055C5.00171 6.11373 4.96927 6.02958 4.90788 5.96818L1.65747 2.71777C1.36458 2.42488 1.36458 1.95012 1.65747 1.65723ZM17.5002 8C17.9143 8.00018 18.2502 8.3359 18.2502 8.75C18.2502 10.4057 17.7608 11.9461 16.9209 13.2376C16.8157 13.3994 16.589 13.4178 16.4525 13.2814L15.8154 12.6442C15.7104 12.5392 15.6944 12.3753 15.7715 12.2485C16.3916 11.2281 16.7502 10.0312 16.7502 8.75C16.7502 8.33583 17.0861 8.00007 17.5002 8ZM6.50024 8.75C6.50024 10.683 8.06725 12.25 10.0002 12.25C10.18 12.25 10.3566 12.2362 10.5289 12.2098C10.7615 12.1742 10.8334 11.8937 10.6671 11.7274L7.03371 8.09402C6.83685 7.89715 6.50024 8.03658 6.50024 8.31499V8.75ZM10.0002 1.25C12.7615 1.25018 15.0002 3.48869 15.0002 6.25V8.75C15.0002 9.49003 14.8383 10.192 14.5494 10.8237C14.4632 11.012 14.2173 11.0461 14.0708 10.8997L13.3882 10.2171C13.2993 10.1281 13.2736 9.99498 13.3141 9.87592C13.4344 9.52257 13.5002 9.144 13.5002 8.75V6.25C13.5002 4.31712 11.9331 2.75018 10.0002 2.75C9.01251 2.75 8.12063 3.1596 7.48433 3.81777C7.35436 3.95221 7.13704 3.9659 7.00482 3.83368L6.39044 3.21929C6.27537 3.10422 6.26713 2.91933 6.37938 2.80151C7.29013 1.84567 8.57577 1.25 10.0002 1.25Z"
    fill="currentColor"
  />
</svg>

<svg xmlns="http://www.w3.org/2000/svg" width="20" height="20" fill="none" data-fui-icon="true" viewBox="0 0 20 20"><path fill="currentColor" d="M1.657 1.657a.75.75 0 0 1 1.061 0l15.625 15.625a.75.75 0 0 1-1.06 1.06L14.74 15.8a.32.32 0 0 0-.396-.042 8.2 8.2 0 0 1-3.31 1.175.32.32 0 0 0-.284.317v.938c0 .172.14.312.313.312h2.187a.75.75 0 0 1 0 1.5h-6.5a.75.75 0 0 1 0-1.5h2.188c.172 0 .312-.14.312-.312v-.938a.32.32 0 0 0-.284-.317A8.25 8.25 0 0 1 1.75 8.75a.75.75 0 0 1 1.5 0 6.75 6.75 0 0 0 9.876 5.98.3.3 0 0 0 .066-.478l-.85-.85a.325.325 0 0 0-.36-.064A5 5 0 0 1 5 8.75V6.2a.32.32 0 0 0-.092-.232l-3.25-3.25a.75.75 0 0 1 0-1.06M17.5 8a.75.75 0 0 1 .75.75c0 1.656-.49 3.196-1.33 4.488a.302.302 0 0 1-.468.043l-.637-.637a.32.32 0 0 1-.043-.396c.62-1.02.978-2.217.978-3.498A.75.75 0 0 1 17.5 8m-11 .75a3.5 3.5 0 0 0 4.029 3.46c.232-.036.304-.316.138-.483L7.034 8.094a.312.312 0 0 0-.534.221zm3.5-7.5a5 5 0 0 1 5 5v2.5c0 .74-.162 1.442-.45 2.074-.087.188-.333.222-.48.076l-.682-.683a.33.33 0 0 1-.074-.341c.12-.353.186-.732.186-1.126v-2.5a3.5 3.5 0 0 0-6.016-2.432c-.13.134-.347.148-.48.016l-.614-.615a.3.3 0 0 1-.01-.417A4.99 4.99 0 0 1 10 1.25"/></svg>
